img/instagram-icon.svg

<svg width="22" height="22" viewBox="0 0 22 22" fill="none" xmlns="http://www.w3.org/2000/svg">
<path fill-rule="evenodd" clip-rule="evenodd" d="M0.632402 3.16805C0 4.40921 0 6.03398 0 9.28352V12.7165C0 15.966 0 17.5908 0.632402 18.8319C1.18868 19.9237 2.0763 20.8113 3.16805 21.3676C4.40921 22 6.03398 22 9.28352 22H12.7165C15.966 22 17.5908 22 18.8319 21.3676C19.9237 20.8113 20.8113 19.9237 21.3676 18.8319C22 17.5908 22 15.966 22 12.7165V9.28352C22 6.03398 22 4.40921 21.3676 3.16805C20.8113 2.0763 19.9237 1.18868 18.8319 0.632402C17.5908 0 15.966 0 12.7165 0H9.28352C6.03398 0 4.40921 0 3.16805 0.632402C2.0763 1.18868 1.18868 2.0763 0.632402 3.16805ZM11 14.9286C13.1697 14.9286 14.9286 13.1697 14.9286 11C14.9286 8.83031 13.1697 7.07143 11 7.07143C8.83031 7.07143 7.07143 8.83031 7.07143 11C7.07143 13.1697 8.83031 14.9286 11 14.9286ZM13.3571 11C13.3571 12.3018 12.3018 13.3571 11 13.3571C9.69819 13.3571 8.64286 12.3018 8.64286 11C8.64286 9.69818 9.69819 8.64286 11 8.64286C12.3018 8.64286 13.3571 9.69818 13.3571 11ZM3.65668 5.7169C3.14286 6.72534 3.14286 8.04547 3.14286 10.6857V11.3143C3.14286 13.9545 3.14286 15.2747 3.65668 16.2831C4.10866 17.1701 4.82985 17.8913 5.7169 18.3433C6.72534 18.8571 8.04547 18.8571 10.6857 18.8571H11.3143C13.9545 18.8571 15.2747 18.8571 16.2831 18.3433C17.1701 17.8913 17.8913 17.1701 18.3433 16.2831C18.8571 15.2747 18.8571 13.9545 18.8571 11.3143V10.6857C18.8571 8.04547 18.8571 6.72534 18.3433 5.7169C17.8913 4.82985 17.1701 4.10866 16.2831 3.65668C15.2747 3.14286 13.9545 3.14286 11.3143 3.14286H10.6857C8.04547 3.14286 6.72534 3.14286 5.7169 3.65668C4.82985 4.10866 4.10866 4.82985 3.65668 5.7169ZM10.6857 4.71429H11.3143C12.6603 4.71429 13.5754 4.71551 14.2827 4.77329C14.9716 4.82958 15.3239 4.93161 15.5697 5.05684C16.1611 5.35815 16.6418 5.83895 16.9432 6.43032C17.0684 6.67609 17.1704 7.02841 17.2267 7.71734C17.2845 8.42463 17.2857 9.33966 17.2857 10.6857V11.3143C17.2857 12.6603 17.2845 13.5754 17.2267 14.2827C17.1704 14.9716 17.0684 15.3239 16.9432 15.5697C16.6418 16.1611 16.1611 16.6418 15.5697 16.9432C15.3239 17.0684 14.9716 17.1704 14.2827 17.2267C13.5754 17.2845 12.6603 17.2857 11.3143 17.2857H10.6857C9.33966 17.2857 8.42463 17.2845 7.71735 17.2267C7.02841 17.1704 6.67609 17.0684 6.43032 16.9432C5.83895 16.6418 5.35815 16.1611 5.05684 15.5697C4.93161 15.3239 4.82958 14.9716 4.77329 14.2827C4.71551 13.5754 4.71429 12.6603 4.71429 11.3143V10.6857C4.71429 9.33966 4.71551 8.42463 4.77329 7.71734C4.82958 7.02841 4.93161 6.67609 5.05684 6.43032C5.35815 5.83895 5.83895 5.35815 6.43032 5.05684C6.67609 4.93161 7.02841 4.82958 7.71735 4.77329C8.42463 4.71551 9.33966 4.71429 10.6857 4.71429ZM16.5 6.67857C16.5 7.32948 15.9723 7.85714 15.3214 7.85714C14.6705 7.85714 14.1429 7.32948 14.1429 6.67857C14.1429 6.02766 14.6705 5.5 15.3214 5.5C15.9723 5.5 16.5 6.02766 16.5 6.67857Z" fill="#FDFDFD"/>
</svg>

<svg xmlns="http://www.w3.org/2000/svg" width="22" height="22" fill="none" xmlns:v="https://vecta.io/nano"><path fill-rule="evenodd" d="M.632 3.168C0 4.409 0 6.034 0 9.284v3.433c0 3.249 0 4.874.632 6.115a5.8 5.8 0 0 0 2.536 2.536C4.409 22 6.034 22 9.284 22h3.433c3.249 0 4.874 0 6.115-.632a5.8 5.8 0 0 0 2.536-2.536C22 17.591 22 15.966 22 12.717V9.284c0-3.25 0-4.874-.632-6.115A5.8 5.8 0 0 0 18.832.632C17.591 0 15.966 0 12.717 0H9.284c-3.25 0-4.874 0-6.115.632A5.8 5.8 0 0 0 .632 3.168zM11 14.929A3.93 3.93 0 0 0 14.929 11 3.93 3.93 0 0 0 11 7.071 3.93 3.93 0 0 0 7.071 11 3.93 3.93 0 0 0 11 14.929zM13.357 11A2.36 2.36 0 0 1 11 13.357 2.36 2.36 0 0 1 8.643 11 2.36 2.36 0 0 1 11 8.643 2.36 2.36 0 0 1 13.357 11zm-9.7-5.283c-.514 1.008-.514 2.329-.514 4.969v.629c0 2.64 0 3.96.514 4.969.452.887 1.173 1.608 2.06 2.06 1.008.514 2.329.514 4.969.514h.629c2.64 0 3.96 0 4.969-.514.887-.452 1.608-1.173 2.06-2.06.514-1.008.514-2.329.514-4.969v-.629c0-2.64 0-3.96-.514-4.969-.452-.887-1.173-1.608-2.06-2.06-1.008-.514-2.329-.514-4.969-.514h-.629c-2.64 0-3.96 0-4.969.514-.887.452-1.608 1.173-2.06 2.06zm7.029-1.003h.629l2.968.059c.689.056 1.041.158 1.287.284.591.301 1.072.782 1.374 1.373.125.246.227.598.284 1.287.058.707.059 1.622.059 2.968v.629l-.059 2.968c-.056.689-.158 1.041-.284 1.287-.301.591-.782 1.072-1.374 1.374-.246.125-.598.227-1.287.284-.707.058-1.622.059-2.968.059h-.629c-1.346 0-2.261-.001-2.968-.059-.689-.056-1.041-.158-1.287-.284-.591-.301-1.072-.782-1.373-1.374-.125-.246-.227-.598-.284-1.287-.058-.707-.059-1.622-.059-2.968v-.629l.059-2.968c.056-.689.158-1.041.284-1.287.301-.591.782-1.072 1.373-1.373.246-.125.598-.227 1.287-.284.707-.058 1.622-.059 2.968-.059zM16.5 6.679a1.18 1.18 0 0 1-1.179 1.179 1.18 1.18 0 0 1-1.179-1.179A1.18 1.18 0 0 1 15.321 5.5 1.18 1.18 0 0 1 16.5 6.679z" fill="#fdfdfd"/></svg>
